X:1
T:Are You Coming to Jesus Tonight?
T:James E. Hawes, ca. 1917
T:Are You Coming to Jesus Tonight?
T:Public Domain
T:Public Domain
C:James E. Hawes, ca. 1917
Z:Public Domain
%%score ( 1 2 ) ( 3 4 )
L:1/8
M:4/4
K:E
V:1 treble 
V:2 treble 
V:3 bass 
V:4 bass 
V:1
 [GB] | [GB]2 [EG][EF] E2 [EG][Ec] | [EB]6 z [EB] | [EB]2 [EG][EF] E2 [EG][EG] | [DF]6 z [EB] | %5
w: 1.~The|voice of the Sav- ior says,|The cross|where He died is in sight;|now at|
w: 2.~The|voice of the Fa- ther im-|From mer-|cy’s most won- der- ful height;|love in|
w: 3.~The|voic- es of loved ones en-|You know|in your heart they are right;|list, for|
w: 4.~The|voic- es of friends gone be-|Seem float-|ing from re- gions of light;|ten- der-|
w: 5.~O|who to him- self will be|Of all|whom these voic- es in- vite?|an- swers,|
 [EB]2 [EG][EF] E2 [EG][EB] | [Ec]6 [Ec]>[Ec] | [EB] [EB]2 [EB] [EG]2 [DF]>E | E6 || %9
w: the cross there is room; Are|com- ing to|Je- sus to- night? * *||
w: that call He out- pours: Are|com- ing to|Je- sus to- night? * *||
w: the mo- ments are fleet! Are|com- ing to|Je- sus to- night? * *||
w: ly say o’er and o’er, Are|com- ing to|Je- sus to- night? * *||
w: my bro- ther, do you? Are|com- ing to|Je- sus to- night? * *||
"^Refrain" [EB]>[EB] | [EB]2 [EG]F E2 [EG][Ec] | (E2 E2 E2) [EB]>[EB] | [EB]2 [EG]F E2 [EG]>[EG] | %13
w: ||||
w: ||||
w: ||||
w: ||||
w: ||||
 (D2 D2 D2- F)[EB] | [EB]2 [EG]F E2 [EG][GB] | [A-c]4 [Ae]2 [Ad]>[Ac] | %16
w: |||
w: |||
w: |||
w: |||
w: |||
 [GB] [GB]2 [GB] [EG]2 [DF]>[B,E] | [B,E]6 z |] %18
w: ||
w: ||
w: ||
w: ||
w: ||
V:2
 x | x4 E2 x2 | x8 | x4 E2 x2 | x8 | x4 E2 x2 | x8 | x15/2 E/ | E6 || x2 | x3 E x4 | B6 x2 | %12
w: |“Come”||E’en||you|||||||
w: |plores||His||you|||||||
w: |treat:||Then||you|||||||
w: |fore||They||you|||||||
w: |true,||Who||you|||||||
 x3 E x4 | F6- D x | x3 E x4 | x8 | x8 | x7 |] %18
w: ||||||
w: ||||||
w: ||||||
w: ||||||
w: ||||||
V:3
 [E,B,] | [E,B,]2 [E,B,][E,A,] [E,G,]2 [E,B,][E,A,] | [E,G,]6 z [E,G,] | %3
w: ~|~ ~ ~ ~ ~ ~|~ ~|
 [E,G,]2 [E,B,][F,A,] [E,G,]2 [E,B,][E,B,] | [B,,B,]6 z [E,G,] | %5
w: ~ ~ ~ ~ ~ ~|~ ~|
 [E,G,]2 [E,B,][E,A,] [E,G,]2 [E,B,][E,G,] | A,6 [A,,A,]>[A,,A,] | %7
w: ~ ~ ~ ~ ~ ~|~ ~ ~|
 [B,,G,] [B,,G,]2 [B,,G,] [B,,B,]2 [B,,A,]>[E,G,] | [E,G,]6 || [E,G,]>[E,G,] | %10
w: ~ ~ ~ ~ ~ ~|Are|you com-|
 [E,G,]2 [E,B,][E,A,] [E,G,]2 [E,B,][E,A,] | ([E,G,]2 [E,G,]2 [E,G,]2) [E,G,]>[E,G,] | %12
w: ing to Je- sus to- night?|Are * * you com-|
 [E,G,]2 [E,B,][E,A,] [E,G,]2 [E,B,]>[E,B,] | ([B,,B,]2 [B,,B,]2 [B,,B,]3) [E,G,] | %14
w: ing to Je- sus to- night?|The * * Bride|
 [E,G,]2 [E,B,][E,A,] [E,G,]2 [E,B,][E,E] | [A,-E]4 [A,C]2 [A,,D]>[A,,E] | %16
w: and the Spir- it in- vite;|Are * you com-|
 [B,,E] [B,,E]2 [B,,E] [B,,B,]2 [B,,A,]>[E,G,] | [E,G,]6 z |] %18
w: ing to Je- sus to- night?||
V:4
 x | x8 | x8 | x8 | x8 | x8 | A,6 x2 | x8 | x6 || x2 | x8 | x8 | x8 | x8 | x8 | x8 | x8 | x7 |] %18
w: ||||||~||||||||||||

